svg/set/DST/WM.svg

<?xml version="1.0" encoding="UTF-8" standalone="no"?>
<svg
   version="1.1"
   id="svg2"
   width="198.66344"
   height="250.4082"
   viewBox="0 0 198.66344 250.4082"
   xmlns="http://www.w3.org/2000/svg"
   xmlns:svg="http://www.w3.org/2000/svg">
  <defs
     id="defs1" />
  <path
     d="M 25.557305,0 80.381523,161.4082 H 118.29363 L 173.10613,0 Z M 21.799492,27.458984 C 13.403042,47.479248 7.3194899,68.971612 3.7545699,89.982422 l 56.6191411,65.914058 4.535156,-2.43945 z m 155.564448,0 -43.60937,125.998046 4.5332,2.43945 56.62109,-65.914058 C 191.34394,68.971612 185.76039,47.479248 177.36394,27.458984 Z M 1.7487106,101.72266 c -2.59048989,10.94417 -1.95122936,21.73422 -0.3496094,33.56836 l 39.9785158,38.0625 V 161.4082 h 8.447266 z m 195.1660094,0 -48.07617,59.68554 h 8.44531 v 11.94532 l 39.98047,-38.0625 c 1.60162,-11.83414 2.24088,-22.62419 -0.34961,-33.56836 z M 2.7252731,147.16016 c -1.1718,24.96532 8.6984019,42.82019 11.1445319,48.56054 0,0 27.662526,21.18993 57.480468,29.38868 1.844271,0.49161 3.709651,0.97589 5.650391,1.38281 0.11164,0.0239 0.224277,0.0527 0.335938,0.0762 -0.04911,0.58118 -0.07761,1.16286 -0.08008,1.74609 l -0.002,0.0176 c 4.5e-5,6.09669 2.473151,11.61624 6.46875,15.61133 1.747596,1.74737 3.785596,3.20416 6.03711,4.28906 0,0 0.002,0 0.002,0 0.642907,0.30972 1.302833,0.58854 1.978515,0.83594 0,0 0.002,0 0.002,0 0.337557,0.12356 0.678392,0.24033 1.023437,0.34766 0,0 0.002,0 0.002,0 0.345052,0.10729 0.692844,0.20628 1.044922,0.29687 0.0012,3.1e-4 0.0027,-3.1e-4 0.0039,0 0.351488,0.0904 0.706423,0.17478 1.064453,0.24805 0.0012,2.5e-4 0.0027,-2.6e-4 0.0039,0 0.358048,0.0732 0.719852,0.13772 1.083984,0.19336 0,0 0.002,0 0.002,0 0.364778,0.0557 0.73114,0.103 1.101563,0.14062 0.0013,1.3e-4 0.0026,-1.3e-4 0.0039,0 0.369802,0.0375 0.74222,0.065 1.117187,0.084 0.377558,0.0192 0.758294,0.0293 1.140625,0.0293 2.284642,-4.1e-4 4.487922,-0.34752 6.560542,-0.99218 0.69193,-0.21509 1.3684,-0.46272 2.0293,-0.74219 0,0 0.002,0 0.002,0 0.65976,-0.27906 1.30261,-0.59016 1.92774,-0.92969 0,0 0.002,0 0.002,0 0.62513,-0.33959 1.23155,-0.70909 1.81836,-1.10547 0.88124,-0.59535 1.71756,-1.25182 2.50195,-1.96484 4.44318,-4.03836 7.23433,-9.86461 7.23438,-16.3418 l -0.006,-0.0352 c -0.003,-0.57734 -0.0276,-1.15321 -0.0762,-1.72852 0.11167,-0.0235 0.22235,-0.0523 0.33399,-0.0762 1.94074,-0.40692 3.80807,-0.8912 5.65234,-1.38281 29.81794,-8.19875 57.48047,-29.38868 57.48047,-29.38868 2.44614,-5.74035 12.31438,-23.59522 11.14258,-48.56054 l -31.49219,30.20312 v 10.73438 c -14.72702,13.0845 -29.05015,25.32625 -44.06054,33.60156 -2.89459,-9.1898 -11.41691,-15.44136 -21.052735,-15.44336 h -0.002 c -9.635841,0.002 -18.15619,6.25356 -21.050781,15.44336 -15.0104,-8.27531 -29.333528,-20.51706 -44.060547,-33.60156 v -10.73438 z"
     id="path1" />
</svg>

<?xml version="1.0" encoding="UTF-8" standalone="no"?>
<svg xmlns="http://www.w3.org/2000/svg" version="1.1" id="svg2" width="198.66344" height="250.40826" viewBox="0 0 198.66344 250.40826">
  <path d="M 25.556641 0 L 80.380859 161.4082 L 118.29297 161.4082 L 173.10547 0 L 25.556641 0 z M 21.798828 27.458984 C 13.402378 47.479248 7.3188262 68.971612 3.7539062 89.982422 L 60.373047 155.89648 L 64.908203 153.45703 L 21.798828 27.458984 z M 177.36328 27.458984 L 133.75391 153.45703 L 138.28711 155.89648 L 194.9082 89.982422 C 191.34328 68.971612 185.75973 47.479248 177.36328 27.458984 z M 1.7480469 101.72266 C -0.84244302 112.66683 -0.20318249 123.45688 1.3984375 135.29102 L 41.376953 173.35352 L 41.376953 161.4082 L 49.824219 161.4082 L 1.7480469 101.72266 z M 196.91406 101.72266 L 148.83789 161.4082 L 157.2832 161.4082 L 157.2832 173.35352 L 197.26367 135.29102 C 198.86529 123.45688 199.50455 112.66683 196.91406 101.72266 z M 2.7246094 147.16016 C 1.5528094 172.12548 11.423011 189.98035 13.869141 195.7207 C 13.869141 195.7207 41.531667 216.91063 71.349609 225.10938 C 73.19388 225.60099 75.05926 226.08527 77 226.49219 C 77.11164 226.51609 77.224277 226.54486 77.335938 226.56836 C 77.286828 227.14954 77.258329 227.73122 77.255859 228.31445 L 77.253906 228.33203 C 77.253951 234.42872 79.727057 239.94827 83.722656 243.94336 C 85.470252 245.69073 87.508252 247.14752 89.759766 248.23242 C 89.759766 248.23242 89.761719 248.23242 89.761719 248.23242 C 90.404626 248.54214 91.064552 248.82096 91.740234 249.06836 C 91.740234 249.06836 91.742188 249.06836 91.742188 249.06836 C 92.079745 249.19192 92.42058 249.30869 92.765625 249.41602 C 92.765625 249.41602 92.767578 249.41602 92.767578 249.41602 C 93.11263 249.52331 93.460422 249.6223 93.8125 249.71289 C 93.8137 249.7132 93.815206 249.71258 93.816406 249.71289 C 94.167894 249.80329 94.522829 249.88767 94.880859 249.96094 C 94.882059 249.96119 94.883566 249.96068 94.884766 249.96094 C 95.242814 250.03414 95.604618 250.09866 95.96875 250.1543 C 95.96875 250.1543 95.970703 250.1543 95.970703 250.1543 C 96.335481 250.21 96.701843 250.2573 97.072266 250.29492 C 97.073566 250.29505 97.074872 250.29479 97.076172 250.29492 C 97.445974 250.33242 97.818392 250.35991 98.193359 250.37891 C 98.570917 250.39811 98.951653 250.4082 99.333984 250.4082 C 101.61863 250.40779 103.82191 250.06068 105.89453 249.41602 C 106.58646 249.20093 107.26293 248.9533 107.92383 248.67383 C 107.92383 248.67383 107.92578 248.67383 107.92578 248.67383 C 108.58554 248.39477 109.22839 248.08367 109.85352 247.74414 C 109.85352 247.74414 109.85547 247.74414 109.85547 247.74414 C 110.4806 247.40455 111.08702 247.03505 111.67383 246.63867 C 112.55507 246.04332 113.39139 245.38685 114.17578 244.67383 C 118.61896 240.63547 121.41011 234.80922 121.41016 228.33203 L 121.4043 228.29688 C 121.4013 227.71954 121.37672 227.14367 121.32812 226.56836 C 121.43979 226.54486 121.55047 226.51609 121.66211 226.49219 C 123.60285 226.08527 125.47018 225.60099 127.31445 225.10938 C 157.13239 216.91063 184.79492 195.7207 184.79492 195.7207 C 187.24106 189.98035 197.1093 172.12548 195.9375 147.16016 L 164.44531 177.36328 L 164.44531 188.09766 C 149.71829 201.18216 135.39516 213.42391 120.38477 221.69922 C 117.49018 212.50942 108.96786 206.25786 99.332031 206.25586 L 99.330078 206.25586 C 89.694237 206.25786 81.173888 212.50942 78.279297 221.69922 C 63.268897 213.42391 48.945769 201.18216 34.21875 188.09766 L 34.21875 177.36328 L 2.7246094 147.16016 z "/>
</svg>
